my-app/src/app/media/big_flower.svg

<svg width="708" height="711" viewBox="0 0 708 711" fill="none" xmlns="http://www.w3.org/2000/svg">
<path d="M245.748 66.3694V39.4913C245.748 13.4704 259.584 0.368164 287.32 0.368164H382.587C408.669 0.368164 421.71 13.4091 421.71 39.4913V66.3694C421.71 157.596 393.975 258.618 338.627 369.375C340.219 369.375 345.974 363.681 355.709 352.293C365.505 340.905 377.75 328.293 392.383 314.456C407.016 300.619 424.159 285.557 443.69 269.271C490.895 231.801 542.202 204.923 597.611 188.637L626.938 178.841C651.367 172.351 667.592 181.29 675.797 205.719L705.124 296.149C713.205 323.885 704.266 340.967 678.184 347.456C585.366 381.682 472.099 388.967 338.566 369.436C343.402 369.436 367.036 380.824 409.404 403.662C500.63 457.418 566.631 517.725 607.346 584.461C625.224 605.645 622.836 623.584 599.999 638.217L521.814 694.422C497.385 707.463 478.65 704.218 465.609 684.626C403.71 612.992 361.342 507.868 338.566 369.436C320.627 499.786 286.401 599.951 235.951 669.993L218.808 694.422C204.175 713.953 185.44 715.606 162.603 699.32L86.867 643.115C60.7849 628.421 57.5399 609.747 77.1321 586.91C134.133 502.235 221.319 429.682 338.566 369.436C201.726 393.865 96.6631 393.069 23.376 366.987L-5.95111 357.191C-30.3801 347.395 -37.7272 330.313 -27.9311 305.884L1.396 213.066C9.53901 187.045 26.6209 179.698 52.7031 191.086C145.521 212.27 240.849 271.72 338.627 369.436C276.728 245.638 245.748 144.616 245.748 66.4305V66.3694Z" fill="#F2F2F2"/>
</svg>

<svg xmlns="http://www.w3.org/2000/svg" width="708" height="711" fill="none"><path fill="#F2F2F2" d="M245.748 66.37V39.49c0-26.02 13.836-39.123 41.572-39.123h95.267q39.123 0 39.123 39.123V66.37c0 91.227-27.735 192.249-83.083 303.006 1.592 0 7.347-5.694 17.082-17.082 9.796-11.388 22.041-24 36.674-37.837s31.776-28.899 51.307-45.185q70.807-56.205 153.921-80.634l29.327-9.796c24.429-6.49 40.654 2.449 48.859 26.878l29.327 90.43c8.081 27.736-.858 44.818-26.94 51.307-92.818 34.226-206.085 41.511-339.618 21.98 4.836 0 28.47 11.388 70.838 34.226 91.226 53.756 157.227 114.063 197.942 180.799 17.878 21.184 15.49 39.123-7.347 53.756l-78.185 56.205c-24.429 13.041-43.164 9.796-56.205-9.796-61.899-71.634-104.267-176.758-127.043-315.19-17.939 130.35-52.165 230.515-102.615 300.557l-17.143 24.429c-14.633 19.531-33.368 21.184-56.205 4.898l-75.736-56.205c-26.082-14.694-29.327-33.368-9.735-56.205 57.001-84.675 144.187-157.228 261.434-217.474-136.84 24.429-241.903 23.633-315.19-2.449l-29.327-9.796c-24.43-9.796-31.776-26.878-21.98-51.307l29.327-92.818c8.143-26.021 25.225-33.368 51.307-21.98 92.818 21.184 188.146 80.634 285.924 178.35-61.899-123.798-92.879-224.82-92.879-303.005z"/></svg>
